logos/tv.bbcworldnews.svg

<?xml version="1.0" encoding="UTF-8" standalone="no"?>
<!-- Created with Inkscape (http://www.inkscape.org/) -->

<svg
   xmlns:dc="http://purl.org/dc/elements/1.1/"
   xmlns:cc="http://creativecommons.org/ns#"
   xmlns:rdf="http://www.w3.org/1999/02/22-rdf-syntax-ns#"
   xmlns:svg="http://www.w3.org/2000/svg"
   xmlns="http://www.w3.org/2000/svg"
   xmlns:inkscape="http://www.inkscape.org/namespaces/inkscape"
   version="1.0"
   width="1024"
   height="768"
   id="svg2">
  <defs
     id="defs4">
    <clipPath
       id="clipPath2506">
      <path
         d="m 95.031,136.276 335.268,0 0,48.909 -335.268,0 0,-48.909 z"
         inkscape:connector-curvature="0"
         id="path2508" />
    </clipPath>
    <clipPath
       id="clipPath2412">
      <path
         d="m 121.254,357.165 168,0 0,126 -168,0 0,-126 z"
         inkscape:connector-curvature="0"
         id="path2414" />
    </clipPath>
    <clipPath
       id="clipPath2398">
      <path
         d="m 0,0 841.89,0 0,595.276 L 0,595.276 0,0 z"
         inkscape:connector-curvature="0"
         id="path2400" />
    </clipPath>
  </defs>
  <metadata
     id="metadata7">
    <rdf:RDF>
      <cc:Work
         rdf:about="">
        <dc:format>image/svg+xml</dc:format>
        <dc:type
           rdf:resource="http://purl.org/dc/dcmitype/StillImage" />
      </cc:Work>
    </rdf:RDF>
  </metadata>
  <g
     id="layer1">
    <g
       transform="matrix(6.0459184,0,0,-6.0459184,-728.70545,2926.3109)"
       id="g2408">
      <g
         clip-path="url(#clipPath2412)"
         id="g2410">
        <path
           d="m 121.254,483.166 168,0 0,-126 -168,0 0,126 z"
           inkscape:connector-curvature="0"
           id="path2416"
           style="fill:#c02519;fill-opacity:1;fill-rule:evenodd;stroke:none" />
        <path
           d="m 174.47,399.792 3.356,0 0,-24.669 -3.038,0 -16.494,19 0,-19 -3.319,0 0,24.669 2.86,0 16.635,-19.16 0,19.16 z"
           inkscape:connector-curvature="0"
           id="path2418"
           style="fill:#ffffff;fill-opacity:1;fill-rule:nonzero;stroke:none" />
        <path
           d="m 184.191,399.792 13.986,0 0,-3.142 -10.454,0 0,-7.523 10.101,0 0,-3.161 -10.101,0 0,-7.665 10.789,0 0,-3.143 -14.321,0 0,24.634 z"
           inkscape:connector-curvature="0"
           id="path2420"
           style="fill:#ffffff;fill-opacity:1;fill-rule:nonzero;stroke:none" />
        <path
           d="m 235.871,399.792 3.522,0 -9.975,-24.776 -0.776,0 -8.066,20.062 -8.15,-20.062 -0.758,0 -9.943,24.776 3.558,0 6.798,-17.005 6.845,17.005 3.339,0 6.876,-17.005 6.73,17.005 z"
           inkscape:connector-curvature="0"
           id="path2422"
           style="fill:#ffffff;fill-opacity:1;fill-rule:nonzero;stroke:none" />
        <path
           d="m 248.963,385.459 -2.684,1.631 c -1.684,1.028 -2.882,2.039 -3.594,3.034 -0.712,0.995 -1.069,2.14 -1.069,3.435 0,1.943 0.674,3.52 2.023,4.732 1.347,1.213 3.099,1.82 5.254,1.82 2.059,0 3.949,-0.579 5.669,-1.735 l 0,-4.009 c -1.778,1.71 -3.692,2.565 -5.74,2.565 -1.154,0 -2.102,-0.267 -2.844,-0.801 -0.741,-0.533 -1.113,-1.216 -1.113,-2.049 0,-0.738 0.274,-1.431 0.82,-2.075 0.547,-0.646 1.425,-1.323 2.636,-2.031 l 2.698,-1.597 c 3.009,-1.798 4.513,-4.086 4.513,-6.864 0,-1.978 -0.662,-3.585 -1.986,-4.821 -1.325,-1.236 -3.047,-1.853 -5.166,-1.853 -2.436,0 -4.655,0.747 -6.657,2.246 l 0,4.486 c 1.906,-2.417 4.114,-3.625 6.622,-3.625 1.107,0 2.028,0.308 2.764,0.924 0.736,0.616 1.104,1.387 1.104,2.314 0,1.501 -1.084,2.925 -3.25,4.273"
           inkscape:connector-curvature="0"
           id="path2424"
           style="fill:#ffffff;fill-opacity:1;fill-rule:nonzero;stroke:none" />
        <path
           d="m 172.986,433.4 3.523,0 -9.974,-24.776 -0.777,0 -8.066,20.06 -8.15,-20.06 -0.758,0 -9.944,24.776 3.56,0 6.798,-17.007 6.844,17.007 3.339,0 6.876,-17.007 6.729,17.007 z"
           inkscape:connector-curvature="0"
           id="path2426"
           style="fill:#ffffff;fill-opacity:1;fill-rule:nonzero;stroke:none" />
        <path
           d="m 190.408,430.397 c -2.824,0 -5.144,-0.883 -6.961,-2.648 -1.818,-1.767 -2.726,-4.022 -2.726,-6.764 0,-2.661 0.912,-4.875 2.735,-6.641 1.823,-1.765 4.105,-2.648 6.846,-2.648 2.751,0 5.048,0.901 6.89,2.702 1.84,1.801 2.76,4.044 2.76,6.728 0,2.614 -0.92,4.812 -2.76,6.596 -1.842,1.784 -4.103,2.675 -6.784,2.675 m -0.142,3.356 c 3.812,0 6.986,-1.207 9.521,-3.621 2.535,-2.413 3.804,-5.439 3.804,-9.076 0,-3.639 -1.28,-6.649 -3.839,-9.034 -2.559,-2.383 -5.785,-3.575 -9.681,-3.575 -3.716,0 -6.814,1.192 -9.29,3.575 -2.477,2.385 -3.716,5.372 -3.716,8.963 0,3.685 1.247,6.734 3.741,9.147 2.495,2.414 5.648,3.621 9.46,3.621"
           inkscape:connector-curvature="0"
           id="path2428"
           style="fill:#ffffff;fill-opacity:1;fill-rule:nonzero;stroke:none" />
        <path
           d="m 212.27,430.397 -1.059,0 0,-7.788 1.342,0 c 1.789,0 3.016,0.153 3.682,0.46 0.665,0.305 1.183,0.768 1.554,1.385 0.371,0.618 0.556,1.322 0.556,2.112 0,0.776 -0.206,1.479 -0.618,2.11 -0.412,0.63 -0.992,1.074 -1.739,1.332 -0.748,0.26 -1.988,0.389 -3.718,0.389 m -4.591,-21.668 0,24.671 6.18,0 c 2.496,0 4.478,-0.618 5.943,-1.854 1.466,-1.237 2.198,-2.908 2.198,-5.016 0,-1.437 -0.358,-2.679 -1.076,-3.727 -0.719,-1.047 -1.749,-1.831 -3.091,-2.348 0.789,-0.519 1.56,-1.225 2.313,-2.12 0.754,-0.894 1.813,-2.453 3.179,-4.678 0.86,-1.402 1.549,-2.456 2.066,-3.161 l 1.307,-1.767 -4.203,0 -1.076,1.625 c -0.036,0.059 -0.106,0.16 -0.212,0.301 l -0.687,0.972 -1.094,1.802 -1.182,1.926 c -0.728,1.013 -1.396,1.819 -2.003,2.419 -0.607,0.599 -1.156,1.031 -1.644,1.296 -0.49,0.263 -1.312,0.396 -2.467,0.396 l -0.919,0 0,-10.737 -3.532,0 z"
           inkscape:connector-curvature="0"
           id="path2430"
           style="fill:#ffffff;fill-opacity:1;fill-rule:nonzero;stroke:none" />
        <path
           d="m 230.142,433.4 3.532,0 0,-21.457 11.107,0 0,-3.214 -14.639,0 0,24.671 z"
           inkscape:connector-curvature="0"
           id="path2432"
           style="fill:#ffffff;fill-opacity:1;fill-rule:nonzero;stroke:none" />
        <path
           d="m 256.939,430.256 -4.415,0 0,-18.348 4.52,0 c 1.767,0 3.138,0.12 4.116,0.362 0.976,0.241 1.791,0.548 2.446,0.918 0.652,0.372 1.25,0.827 1.791,1.369 1.742,1.766 2.614,3.996 2.614,6.693 0,2.649 -0.895,4.809 -2.684,6.48 -0.659,0.624 -1.416,1.137 -2.269,1.537 -0.855,0.4 -1.664,0.665 -2.429,0.795 -0.765,0.129 -1.995,0.194 -3.69,0.194 m -7.947,-21.491 0,24.635 8.317,0 c 3.356,0 6.01,-0.504 7.966,-1.511 1.954,-1.006 3.507,-2.486 4.661,-4.441 1.154,-1.954 1.731,-4.085 1.731,-6.392 0,-1.649 -0.318,-3.226 -0.954,-4.733 -0.636,-1.508 -1.542,-2.832 -2.719,-3.973 -1.201,-1.179 -2.597,-2.067 -4.186,-2.667 -0.93,-0.365 -1.783,-0.609 -2.561,-0.733 -0.777,-0.124 -2.26,-0.185 -4.449,-0.185 l -7.806,0 z"
           inkscape:connector-curvature="0"
           id="path2434"
           style="fill:#ffffff;fill-opacity:1;fill-rule:nonzero;stroke:none" />
        <path
           d="m 208.503,452.316 c -0.002,-0.528 -0.164,-1.06 -0.636,-1.473 -0.471,-0.414 -1.286,-0.729 -2.636,-0.729 l -2.717,0 0,4.357 2.596,0 c 1.211,0 2.07,-0.246 2.609,-0.629 0.537,-0.386 0.78,-0.893 0.784,-1.526"
           inkscape:connector-curvature="0"
           id="path2436"
           style="fill:#ffffff;fill-opacity:1;fill-rule:nonzero;stroke:none" />
        <path
           d="m 206.302,457.533 c 0.506,0.364 0.75,0.88 0.753,1.653 -0.002,0.531 -0.154,0.986 -0.536,1.325 -0.383,0.34 -1.033,0.581 -2.083,0.581 l -1.922,0 0,-4.129 1.319,0 c 1.142,0 1.96,0.203 2.469,0.57"
           inkscape:connector-curvature="0"
           id="path2438"
           style="fill:#ffffff;fill-opacity:1;fill-rule:nonzero;stroke:none" />
        <path
           d="m 211.434,451.996 c 0.007,2.014 -1.334,3.545 -3.481,4.133 0.58,0.296 1.038,0.658 1.374,1.099 0.448,0.592 0.663,1.317 0.66,2.163 0.003,1.038 -0.406,2.097 -1.283,2.89 -0.878,0.792 -2.21,1.305 -4.028,1.304 l -5.021,0 0,-15.966 5.89,0 0.003,0 c 2.102,0 3.578,0.57 4.528,1.415 0.951,0.841 1.359,1.945 1.358,2.962 m 5.597,-7.471 -23.557,0 0,22.168 23.557,0 0,-22.168 z"
           inkscape:connector-curvature="0"
           id="path2440"
           style="fill:#ffffff;fill-opacity:1;fill-rule:nonzero;stroke:none" />
        <path
           d="m 179.159,457.533 c 0.505,0.364 0.75,0.88 0.754,1.653 -0.001,0.531 -0.154,0.986 -0.536,1.325 -0.384,0.34 -1.034,0.581 -2.085,0.581 l -1.92,0 0,-4.129 1.319,0 c 1.141,0 1.959,0.203 2.468,0.57"
           inkscape:connector-curvature="0"
           id="path2442"
           style="fill:#ffffff;fill-opacity:1;fill-rule:nonzero;stroke:none" />
        <path
           d="m 180.576,453.842 c -0.538,0.383 -1.398,0.629 -2.608,0.629 l -2.596,0 0,-4.357 2.717,0 c 1.35,0 2.163,0.315 2.635,0.729 0.472,0.413 0.635,0.945 0.636,1.473 -0.004,0.633 -0.247,1.14 -0.784,1.526"
           inkscape:connector-curvature="0"
           id="path2444"
           style="fill:#ffffff;fill-opacity:1;fill-rule:nonzero;stroke:none" />
        <path
           d="m 184.292,451.996 c 0.007,2.014 -1.336,3.545 -3.48,4.133 0.578,0.296 1.036,0.658 1.371,1.099 0.45,0.592 0.663,1.317 0.662,2.163 0.001,1.038 -0.407,2.097 -1.284,2.89 -0.877,0.792 -2.209,1.305 -4.027,1.304 l -5.022,0 0,-15.966 5.889,0 0.004,0 c 2.103,0 3.578,0.57 4.528,1.415 0.95,0.841 1.361,1.945 1.359,2.962 m 5.597,-7.471 -23.556,0 0,22.168 23.556,0 0,-22.168 z"
           inkscape:connector-curvature="0"
           id="path2446"
           style="fill:#ffffff;fill-opacity:1;fill-rule:nonzero;stroke:none" />
        <path
           d="m 239.496,451.893 -0.378,-0.231 c -1.824,-1.114 -3.808,-1.711 -5.61,-1.71 -3.858,0.015 -6.398,2.301 -6.408,5.627 0.004,3.255 2.657,5.664 6.31,5.672 1.861,-10e-4 3.546,-0.482 5.549,-1.58 l 0.368,-0.202 0,2.971 -0.158,0.062 c -2.258,0.891 -4.007,1.288 -5.734,1.287 -2.671,0.001 -4.988,-0.881 -6.639,-2.377 -1.65,-1.497 -2.631,-3.61 -2.629,-6.037 0.001,-1.691 0.698,-3.672 2.192,-5.245 1.489,-1.573 3.784,-2.719 6.931,-2.718 l 0.011,0 c 2.61,0 4.42,0.581 6.056,1.388 l 0.139,0.068 0,3.025 z m 4.678,-7.368 -23.556,0 0,22.168 23.556,0 0,-22.168 z"
           inkscape:connector-curvature="0"
           id="path2448"
           style="fill:#ffffff;fill-opacity:1;fill-rule:nonzero;stroke:none" />
      </g>
    </g>
  </g>
</svg>

<?xml version="1.0" encoding="UTF-8" standalone="no"?>
<!-- Created with Inkscape (http://www.inkscape.org/) -->
<svg
   xmlns:dc="http://purl.org/dc/elements/1.1/"
   xmlns:cc="http://creativecommons.org/ns#"
   xmlns:rdf="http://www.w3.org/1999/02/22-rdf-syntax-ns#"
   xmlns:svg="http://www.w3.org/2000/svg"
   xmlns="http://www.w3.org/2000/svg"
   xmlns:sodipodi="http://sodipodi.sourceforge.net/DTD/sodipodi-0.dtd"
   xmlns:inkscape="http://www.inkscape.org/namespaces/inkscape"
   width="1024"
   height="768"
   id="svg2"
   sodipodi:version="0.32"
   inkscape:version="0.46"
   version="1.0"
   sodipodi:docname="BBC World News.svg"
   inkscape:output_extension="org.inkscape.output.svg.inkscape">
  <defs
     id="defs4">
    <inkscape:perspective
       sodipodi:type="inkscape:persp3d"
       inkscape:vp_x="0 : 526.18109 : 1"
       inkscape:vp_y="0 : 1000 : 0"
       inkscape:vp_z="744.09448 : 526.18109 : 1"
       inkscape:persp3d-origin="372.04724 : 350.78739 : 1"
       id="perspective10" />
    <clipPath
       id="clipPath2506"
       clipPathUnits="userSpaceOnUse">
      <path
         id="path2508"
         d="M 95.031,136.276 L 430.299,136.276 L 430.299,185.185 L 95.031,185.185 L 95.031,136.276 z" />
    </clipPath>
    <clipPath
       id="clipPath2412"
       clipPathUnits="userSpaceOnUse">
      <path
         id="path2414"
         d="M 121.254,357.165 L 289.254,357.165 L 289.254,483.165 L 121.254,483.165 L 121.254,357.165 z" />
    </clipPath>
    <clipPath
       id="clipPath2398"
       clipPathUnits="userSpaceOnUse">
      <path
         id="path2400"
         d="M 0,0 L 841.89,0 L 841.89,595.276 L 0,595.276 L 0,0 z" />
    </clipPath>
    <inkscape:perspective
       id="perspective2390"
       inkscape:persp3d-origin="372.04724 : 350.78739 : 1"
       inkscape:vp_z="744.09448 : 526.18109 : 1"
       inkscape:vp_y="0 : 1000 : 0"
       inkscape:vp_x="0 : 526.18109 : 1"
       sodipodi:type="inkscape:persp3d" />
  </defs>
  <sodipodi:namedview
     id="base"
     pagecolor="#ffffff"
     bordercolor="#666666"
     borderopacity="1.0"
     inkscape:pageopacity="0.0"
     inkscape:pageshadow="2"
     inkscape:zoom="0.35"
     inkscape:cx="426.60407"
     inkscape:cy="864.22137"
     inkscape:document-units="px"
     inkscape:current-layer="layer1"
     showgrid="false"
     inkscape:window-width="640"
     inkscape:window-height="667"
     inkscape:window-x="142"
     inkscape:window-y="15" />
  <metadata
     id="metadata7">
    <rdf:RDF>
      <cc:Work
         rdf:about="">
        <dc:format>image/svg+xml</dc:format>
        <dc:type
           rdf:resource="http://purl.org/dc/dcmitype/StillImage" />
      </cc:Work>
    </rdf:RDF>
  </metadata>
  <g
     inkscape:label="Ebene 1"
     inkscape:groupmode="layer"
     id="layer1">
    <g
       id="g2408"
       transform="matrix(6.0459184,0,0,-6.0459184,-728.70545,2926.3109)">
      <g
         id="g2410"
         clip-path="url(#clipPath2412)">
        <path
           d="M 121.254,483.166 L 289.254,483.166 L 289.254,357.166 L 121.254,357.166 L 121.254,483.166 z"
           style="fill:#c02519;fill-opacity:1;fill-rule:evenodd;stroke:none"
           id="path2416" />
        <path
           d="M 174.47,399.792 L 177.826,399.792 L 177.826,375.123 L 174.788,375.123 L 158.294,394.123 L 158.294,375.123 L 154.975,375.123 L 154.975,399.792 L 157.835,399.792 L 174.47,380.632 L 174.47,399.792 z"
           style="fill:#ffffff;fill-opacity:1;fill-rule:nonzero;stroke:none"
           id="path2418" />
        <path
           d="M 184.191,399.792 L 198.177,399.792 L 198.177,396.65 L 187.723,396.65 L 187.723,389.127 L 197.824,389.127 L 197.824,385.966 L 187.723,385.966 L 187.723,378.301 L 198.512,378.301 L 198.512,375.158 L 184.191,375.158 L 184.191,399.792 z"
           style="fill:#ffffff;fill-opacity:1;fill-rule:nonzero;stroke:none"
           id="path2420" />
        <path
           d="M 235.871,399.792 L 239.393,399.792 L 229.418,375.016 L 228.642,375.016 L 220.576,395.078 L 212.426,375.016 L 211.668,375.016 L 201.725,399.792 L 205.283,399.792 L 212.081,382.787 L 218.926,399.792 L 222.265,399.792 L 229.141,382.787 L 235.871,399.792 z"
           style="fill:#ffffff;fill-opacity:1;fill-rule:nonzero;stroke:none"
           id="path2422" />
        <path
           d="M 248.963,385.459 L 246.279,387.09 C 244.595,388.118 243.397,389.129 242.685,390.124 C 241.973,391.119 241.616,392.264 241.616,393.559 C 241.616,395.502 242.29,397.079 243.639,398.291 C 244.986,399.504 246.738,400.111 248.893,400.111 C 250.952,400.111 252.842,399.532 254.562,398.376 L 254.562,394.367 C 252.784,396.077 250.87,396.932 248.822,396.932 C 247.668,396.932 246.72,396.665 245.978,396.131 C 245.237,395.598 244.865,394.915 244.865,394.082 C 244.865,393.344 245.139,392.651 245.685,392.007 C 246.232,391.361 247.11,390.684 248.321,389.976 L 251.019,388.379 C 254.028,386.581 255.532,384.293 255.532,381.515 C 255.532,379.537 254.87,377.93 253.546,376.694 C 252.221,375.458 250.499,374.841 248.38,374.841 C 245.944,374.841 243.725,375.588 241.723,377.087 L 241.723,381.573 C 243.629,379.156 245.837,377.948 248.345,377.948 C 249.452,377.948 250.373,378.256 251.109,378.872 C 251.845,379.488 252.213,380.259 252.213,381.186 C 252.213,382.687 251.129,384.111 248.963,385.459"
           style="fill:#ffffff;fill-opacity:1;fill-rule:nonzero;stroke:none"
           id="path2424" />
        <path
           d="M 172.986,433.4 L 176.509,433.4 L 166.535,408.624 L 165.758,408.624 L 157.692,428.684 L 149.542,408.624 L 148.784,408.624 L 138.84,433.4 L 142.4,433.4 L 149.198,416.393 L 156.042,433.4 L 159.381,433.4 L 166.257,416.393 L 172.986,433.4 z"
           style="fill:#ffffff;fill-opacity:1;fill-rule:nonzero;stroke:none"
           id="path2426" />
        <path
           d="M 190.408,430.397 C 187.584,430.397 185.264,429.514 183.447,427.749 C 181.629,425.982 180.721,423.727 180.721,420.985 C 180.721,418.324 181.633,416.11 183.456,414.344 C 185.279,412.579 187.561,411.696 190.302,411.696 C 193.053,411.696 195.35,412.597 197.192,414.398 C 199.032,416.199 199.952,418.442 199.952,421.126 C 199.952,423.74 199.032,425.938 197.192,427.722 C 195.35,429.506 193.089,430.397 190.408,430.397 M 190.266,433.753 C 194.078,433.753 197.252,432.546 199.787,430.132 C 202.322,427.719 203.591,424.693 203.591,421.056 C 203.591,417.417 202.311,414.407 199.752,412.022 C 197.193,409.639 193.967,408.447 190.071,408.447 C 186.355,408.447 183.257,409.639 180.781,412.022 C 178.304,414.407 177.065,417.394 177.065,420.985 C 177.065,424.67 178.312,427.719 180.806,430.132 C 183.301,432.546 186.454,433.753 190.266,433.753"
           style="fill:#ffffff;fill-opacity:1;fill-rule:nonzero;stroke:none"
           id="path2428" />
        <path
           d="M 212.27,430.397 L 211.211,430.397 L 211.211,422.609 L 212.553,422.609 C 214.342,422.609 215.569,422.762 216.235,423.069 C 216.9,423.374 217.418,423.837 217.789,424.454 C 218.16,425.072 218.345,425.776 218.345,426.566 C 218.345,427.342 218.139,428.045 217.727,428.676 C 217.315,429.306 216.735,429.75 215.988,430.008 C 215.24,430.268 214,430.397 212.27,430.397 M 207.679,408.729 L 207.679,433.4 L 213.859,433.4 C 216.355,433.4 218.337,432.782 219.802,431.546 C 221.268,430.309 222,428.638 222,426.53 C 222,425.093 221.642,423.851 220.924,422.803 C 220.205,421.756 219.175,420.972 217.833,420.455 C 218.622,419.936 219.393,419.23 220.146,418.335 C 220.9,417.441 221.959,415.882 223.325,413.657 C 224.185,412.255 224.874,411.201 225.391,410.496 L 226.698,408.729 L 222.495,408.729 L 221.419,410.354 C 221.383,410.413 221.313,410.514 221.207,410.655 L 220.52,411.627 L 219.426,413.429 L 218.244,415.355 C 217.516,416.368 216.848,417.174 216.241,417.774 C 215.634,418.373 215.085,418.805 214.597,419.07 C 214.107,419.333 213.285,419.466 212.13,419.466 L 211.211,419.466 L 211.211,408.729 L 207.679,408.729 z"
           style="fill:#ffffff;fill-opacity:1;fill-rule:nonzero;stroke:none"
           id="path2430" />
        <path
           d="M 230.142,433.4 L 233.674,433.4 L 233.674,411.943 L 244.781,411.943 L 244.781,408.729 L 230.142,408.729 L 230.142,433.4 z"
           style="fill:#ffffff;fill-opacity:1;fill-rule:nonzero;stroke:none"
           id="path2432" />
        <path
           d="M 256.939,430.256 L 252.524,430.256 L 252.524,411.908 L 257.044,411.908 C 258.811,411.908 260.182,412.028 261.16,412.27 C 262.136,412.511 262.951,412.818 263.606,413.188 C 264.258,413.56 264.856,414.015 265.397,414.557 C 267.139,416.323 268.011,418.553 268.011,421.25 C 268.011,423.899 267.116,426.059 265.327,427.73 C 264.668,428.354 263.911,428.867 263.058,429.267 C 262.203,429.667 261.394,429.932 260.629,430.062 C 259.864,430.191 258.634,430.256 256.939,430.256 M 248.992,408.765 L 248.992,433.4 L 257.309,433.4 C 260.665,433.4 263.319,432.896 265.275,431.889 C 267.229,430.883 268.782,429.403 269.936,427.448 C 271.09,425.494 271.667,423.363 271.667,421.056 C 271.667,419.407 271.349,417.83 270.713,416.323 C 270.077,414.815 269.171,413.491 267.994,412.35 C 266.793,411.171 265.397,410.283 263.808,409.683 C 262.878,409.318 262.025,409.074 261.247,408.95 C 260.47,408.826 258.987,408.765 256.798,408.765 L 248.992,408.765 z"
           style="fill:#ffffff;fill-opacity:1;fill-rule:nonzero;stroke:none"
           id="path2434" />
        <path
           d="M 208.503,452.316 C 208.501,451.788 208.339,451.256 207.867,450.843 C 207.396,450.429 206.581,450.114 205.231,450.114 L 202.514,450.114 L 202.514,454.471 L 205.11,454.471 C 206.321,454.471 207.18,454.225 207.719,453.842 C 208.256,453.456 208.499,452.949 208.503,452.316"
           style="fill:#ffffff;fill-opacity:1;fill-rule:nonzero;stroke:none"
           id="path2436" />
        <path
           d="M 206.302,457.533 C 206.808,457.897 207.052,458.413 207.055,459.186 C 207.053,459.717 206.901,460.172 206.519,460.511 C 206.136,460.851 205.486,461.092 204.436,461.092 L 202.514,461.092 L 202.514,456.963 L 203.833,456.963 C 204.975,456.963 205.793,457.166 206.302,457.533"
           style="fill:#ffffff;fill-opacity:1;fill-rule:nonzero;stroke:none"
           id="path2438" />
        <path
           d="M 211.434,451.996 C 211.441,454.01 210.1,455.541 207.953,456.129 C 208.533,456.425 208.991,456.787 209.327,457.228 C 209.775,457.82 209.99,458.545 209.987,459.391 C 209.99,460.429 209.581,461.488 208.704,462.281 C 207.826,463.073 206.494,463.586 204.676,463.585 L 199.655,463.585 L 199.655,447.619 L 205.545,447.619 L 205.548,447.619 C 207.65,447.619 209.126,448.189 210.076,449.034 C 211.027,449.875 211.435,450.979 211.434,451.996 M 217.031,444.525 L 193.474,444.525 L 193.474,466.693 L 217.031,466.693 L 217.031,444.525 z"
           style="fill:#ffffff;fill-opacity:1;fill-rule:nonzero;stroke:none"
           id="path2440" />
        <path
           d="M 179.159,457.533 C 179.664,457.897 179.909,458.413 179.913,459.186 C 179.912,459.717 179.759,460.172 179.377,460.511 C 178.993,460.851 178.343,461.092 177.292,461.092 L 175.372,461.092 L 175.372,456.963 L 176.691,456.963 C 177.832,456.963 178.65,457.166 179.159,457.533"
           style="fill:#ffffff;fill-opacity:1;fill-rule:nonzero;stroke:none"
           id="path2442" />
        <path
           d="M 180.576,453.842 C 180.038,454.225 179.178,454.471 177.968,454.471 L 175.372,454.471 L 175.372,450.114 L 178.089,450.114 C 179.439,450.114 180.252,450.429 180.724,450.843 C 181.196,451.256 181.359,451.788 181.36,452.316 C 181.356,452.949 181.113,453.456 180.576,453.842"
           style="fill:#ffffff;fill-opacity:1;fill-rule:nonzero;stroke:none"
           id="path2444" />
        <path
           d="M 184.292,451.996 C 184.299,454.01 182.956,455.541 180.812,456.129 C 181.39,456.425 181.848,456.787 182.183,457.228 C 182.633,457.82 182.846,458.545 182.845,459.391 C 182.846,460.429 182.438,461.488 181.561,462.281 C 180.684,463.073 179.352,463.586 177.534,463.585 L 172.512,463.585 L 172.512,447.619 L 178.401,447.619 L 178.405,447.619 C 180.508,447.619 181.983,448.189 182.933,449.034 C 183.883,449.875 184.294,450.979 184.292,451.996 M 189.889,444.525 L 166.333,444.525 L 166.333,466.693 L 189.889,466.693 L 189.889,444.525 z"
           style="fill:#ffffff;fill-opacity:1;fill-rule:nonzero;stroke:none"
           id="path2446" />
        <path
           d="M 239.496,451.893 L 239.118,451.662 C 237.294,450.548 235.31,449.951 233.508,449.952 C 229.65,449.967 227.11,452.253 227.1,455.579 C 227.104,458.834 229.757,461.243 233.41,461.251 C 235.271,461.25 236.956,460.769 238.959,459.671 L 239.327,459.469 L 239.327,462.44 L 239.169,462.502 C 236.911,463.393 235.162,463.79 233.435,463.789 C 230.764,463.79 228.447,462.908 226.796,461.412 C 225.146,459.915 224.165,457.802 224.167,455.375 C 224.168,453.684 224.865,451.703 226.359,450.13 C 227.848,448.557 230.143,447.411 233.29,447.412 L 233.301,447.412 C 235.911,447.412 237.721,447.993 239.357,448.8 L 239.496,448.868 L 239.496,451.893 z M 244.174,444.525 L 220.618,444.525 L 220.618,466.693 L 244.174,466.693 L 244.174,444.525 z"
           style="fill:#ffffff;fill-opacity:1;fill-rule:nonzero;stroke:none"
           id="path2448" />
      </g>
    </g>
  </g>
</svg>
